X: 41
T:David's Jig
M:6/8
L:1/8
C:Natalie MacMaster
K:F
||:DGG GAB|AFD G2 B| AFF dFc|FBF AFD|
DGG GAB|AFD G2 g|gfd cdf|1cdf A2 F:|2 cdf cdf :|
||:g2 d gab|agf g2| 
! ABD

% Output from ABC2Win  Version 2.1 i on 10/13/2002
